!! 00000] TT[WS
!!!OTL: Zan pan gege hui kouli
!!!ARE: Asia, China,ÿShanxi Hequ
!! Ethnic Group: Han
!! WI, 20
!!!SCT: J0023
!!!YEM: Copyright 1995, estate of Helmut Schaffrath.
**kern
*ICvox
*Ivox
*M2/4
*k[f#c#]
*D:
{8.dd
16ee
8ff#
8ff#
=1
8ff#
8ee
8dd
8b
=2
8dd
4a
8b
=3
2e}
=4
{8.dd
16ee
8ff#
8ff#
=5
8ff#
8ee
8dd
8b
=6
8.dd
16a
8a
8dd
=7
8b
4.a}
==
!!!AGN: Shange, Shanqu. Qingge
!!!ONB: ESAC (Essen Associative Code) Database: CHINA
!!!AMT: simple duple
!!!AIN: vox
!!!EED: Helmut Schaffrath
!!!EEV: 1.0
*-
